public/illustrations/_bike.svg

<svg width="408" height="206" viewBox="0 0 408 206" fill="none" xmlns="http://www.w3.org/2000/svg">
<path d="M26.5486 111.68C26.3928 107.234 26.0532 103.199 26.0107 99.0503C25.7842 90.7392 27.3842 82.5273 30.754 75.1082C35.483 64.8573 43.9499 61.077 54.4414 64.9847C56.8767 66.0042 59.156 67.151 61.2798 68.4253C62.4975 69.0058 63.6726 69.8695 65.1451 70.6199C66.1645 69.3173 67.0283 68.1421 68.0194 67.1369C69.7042 65.0697 71.5168 63.1583 73.6123 61.2752C82.0934 54.0685 91.0413 54.3517 99.8197 61.7424C103.671 65.0839 106.418 69.4305 107.947 74.1878C108.981 77.3169 110.014 80.4459 110.92 83.4192L134.919 85.4581L146.798 62.7052C145.892 62.0256 145.114 61.346 144.349 60.6805C139.408 55.7675 133.97 51.3783 129.652 45.9698C121.907 36.1437 122.417 24.2222 132.215 15.6137C138.006 10.4883 144.405 6.16993 150.55 1.52591C151.485 0.93125 152.532 0.492344 153.708 0.209172C154.741 -0.0881583 155.888 -0.0881203 156.978 0.336638C158.069 0.761395 158.833 1.42684 159.428 2.36131C160.022 3.29577 160.306 4.47092 160.306 5.61776C160.164 6.73629 159.739 7.82654 159.06 8.74684C158.238 9.63884 157.417 10.3893 156.497 10.9839C151.924 14.3961 147.492 17.8366 142.806 21.0931C138.898 23.7408 139.535 27.8184 139.634 31.5421C139.549 32.2501 140.951 33.5668 141.914 33.8358C144.391 34.5721 146.897 35.0393 149.46 35.0818C161.566 34.1898 173.501 32.2784 185.168 29.1919L185.452 29.2343C189.303 28.1582 192.304 29.2343 193.239 31.9386C194.414 35.0818 192.559 38.4232 188.566 39.4851C182.068 41.2266 175.625 42.5576 169.042 43.7186C161.906 44.8088 154.713 45.3326 147.605 46.1396C147.039 46.0689 146.444 46.2812 144.972 46.6635C147.549 48.8439 149.616 50.5288 151.683 52.2278C153.354 53.7286 155.053 54.9322 156.893 56.164C158.224 56.9002 159.598 57.3675 161.155 57.4241C171.647 56.9002 182.167 56.0931 192.658 55.4135C205.741 54.6489 218.852 53.7287 231.934 52.9641C235.516 52.8508 239.141 52.4544 242.794 51.7748C241.577 51.1943 240.373 50.6138 239.184 49.8917C237.428 49.0988 235.715 48.0227 234.115 47.1024C226.922 41.9062 227.375 33.8359 235.162 29.829C238.674 27.9884 242.426 26.615 246.362 25.9637C257.137 24.3354 267.997 22.9903 278.856 21.801C285.652 21.0931 289.532 24.293 290.962 31.0466C292.689 38.8339 291.825 46.706 290.296 54.3658C289.433 58.9673 285.568 61.3319 280.329 60.9496C275.373 60.6098 270.361 59.6894 265.434 59.0665C260.507 58.4435 263.621 58.6983 262.772 58.7267C260.945 58.5001 260.096 59.5337 260.733 61.3177C261.045 62.2097 261.384 62.9742 261.852 63.7388C266.368 72.0215 270.885 80.2902 275.288 88.4172C276.902 91.4754 277.044 91.4897 280.315 90.4845C297.956 85.3024 314.947 86.3077 331.045 95.624C349.14 106.045 359.561 121.789 359.858 143.083C360.155 167.804 348.035 185.687 326.769 196.985C305.191 208.525 283.245 208.171 262.177 195.371C255.551 191.393 249.788 186.097 245.328 179.684C240.868 173.27 237.923 166.049 236.592 158.46C236.451 157.299 236.012 156.251 235.743 155.076L232.557 155.387C226.058 155.996 219.432 156.435 212.919 157.186C211.602 157.44 210.059 157.256 208.841 156.676C207.624 156.095 206.477 155.09 205.911 153.872C203.093 149.087 199.95 144.556 197.132 139.77C188.326 124.805 177.962 110.802 168.065 96.5584C163.845 90.456 159.796 84.0989 155.733 77.8691C155.279 76.9488 154.543 76.0001 153.793 75.1931C150.48 79.9079 147.705 84.9767 145.468 90.272L149.064 92.2966C159.045 97.9884 167.116 106.427 172.071 116.904C177.041 127.24 178.712 138.864 176.843 150.191C175.569 158.021 172.765 165.511 168.489 172.25C164.213 178.99 158.635 184.71 151.938 189.141C145.198 193.856 137.496 197.297 129.411 199.137C121.327 200.978 113.044 201.063 104.931 199.746C95.2749 198.231 86.0716 194.224 78.2702 188.235C77.4915 187.57 76.5712 187.018 75.4668 186.735C74.4899 186.607 73.3572 186.466 72.3237 186.763C68.246 187.386 64.1683 186.876 60.0057 187.06C51.9777 187.329 43.808 187.584 35.8084 187.711C30.3856 187.74 24.9772 187.626 19.6818 187.669C18.535 187.669 17.4305 187.386 16.3686 186.819C15.2925 186.253 14.4004 185.432 13.8058 184.497C13.0695 183.549 12.4749 182.614 12.036 181.567C6.89636 169.206 1.74291 156.86 0.312883 143.409C-0.465843 136.033 0.0153437 128.812 3.99393 122.185C8.5247 114.625 15.1228 110.887 24.0003 111.878L26.8037 112.232L26.5769 111.779L26.5486 111.68ZM99.7066 86.2509C99.8199 85.4014 99.6218 84.6651 99.4519 83.7873C98.8714 81.5786 98.305 79.3557 97.2856 77.2319C95.9263 74.4851 94.2412 71.9933 92.1033 69.7279C88.2804 66.1033 84.5568 66.2024 80.833 69.7279C78.0579 72.5172 75.5235 75.6179 73.3856 78.9168C69.3503 84.8351 66.4197 85.4581 60.8412 81.0406C60.204 80.3893 59.4252 79.8655 58.6182 79.469C55.9705 77.8549 53.3087 76.3682 50.4628 75.1506C45.9745 73.4374 43.8648 74.3153 41.5994 78.5912C41.0331 79.6673 40.4524 80.8707 40.0135 82.1025C36.9269 90.6968 36.6722 99.5176 37.6916 108.353C38.0314 111.255 38.6685 114.186 38.711 117.188C38.9234 123.347 34.6899 126.376 28.7999 124.493C27.285 124.012 25.9539 123.276 24.4531 122.794C19.2569 120.996 15.4768 122.653 12.999 127.622C10.5212 132.592 10.6061 137.448 11.1016 142.659C12.4184 153.674 16.7225 163.642 20.5737 173.822C20.786 174.417 21.14 175.04 21.6639 175.393C22.1878 175.747 22.8816 175.974 23.4479 175.903C27.0159 175.932 30.5558 176.087 34.2795 175.988C43.7233 175.762 53.3227 175.549 62.7666 175.308C63.6444 175.139 64.3807 174.94 65.2585 174.77C43.1285 141.002 60.9686 98.1584 99.4519 86.1944L99.735 86.2369L99.7066 86.2509ZM163.775 68.2554L163.208 69.3314C168.503 77.1328 173.671 84.7785 178.953 92.5941C184.262 100.254 189.826 108.098 195.108 116.041C200.389 123.984 205.132 131.587 210.371 139.813C211.928 136.585 213.089 134.164 214.264 131.601C224.133 110.009 234.002 88.4314 243.87 66.8395C244.281 65.8909 244.564 64.7865 245.003 63.5547C217.436 63.7671 190.648 66.7971 163.619 68.3828L163.775 68.2554ZM133.248 115.474C132.866 116.281 132.314 117.216 131.903 118.164C129.865 123.049 127.684 127.764 125.645 132.649C125.206 133.88 124.498 134.928 123.791 135.976C123.083 137.024 121.992 137.746 120.817 138.029C119.642 138.312 118.354 138.284 117.306 137.59C116.216 137.165 115.196 136.188 114.757 135.126C114.177 134.05 114.063 132.748 114.361 131.502C114.672 130.114 115.139 128.741 115.862 127.552C117.688 123.219 119.543 118.745 121.384 114.412C121.624 113.591 121.879 112.756 121.978 111.92C109.419 109.613 95.0766 116.933 88.8892 128.713C85.7318 134.447 84.7408 141.172 86.0858 147.487C87.5442 153.957 91.1264 159.536 96.4784 163.5C102.864 168.3 110.835 170.735 118.878 170.339C133.942 169.673 146.926 158.474 149.46 144.103C151.371 132.351 143.938 119 133.263 115.361V115.503L133.248 115.474ZM267.005 151.253C266.92 151.961 267.105 152.697 267.161 153.419C267.94 157.37 269.625 161.008 272.074 164.18C274.524 167.351 277.639 169.886 281.277 171.486C288.541 174.969 296.866 175.747 304.682 173.737C312.511 171.585 319.251 166.87 323.81 160.173C328.412 153.193 329.941 145.533 327.406 137.364C323.145 123.701 310.005 118.179 300.873 118.164C298.168 118.108 295.379 117.612 292.463 119.24C294.105 122.016 295.776 124.649 297.291 127.268C299.386 130.964 301.652 134.532 303.591 138.34C305.177 141.54 304.568 144.174 301.468 146.071C299.599 147.26 297.659 148.011 295.478 148.308C289.107 149.073 282.622 149.54 276.279 150.021C273.094 150.333 269.922 150.644 266.722 151.097L266.991 151.267L267.005 151.253ZM246.957 152.995C247.268 155.033 247.226 156.449 247.636 157.794C249.449 166.02 253.654 173.397 259.756 179.315C269.412 188.674 281.008 192.993 294.204 193.531C316.915 194.55 338.662 180.604 346.223 159.154C352.226 142.22 349.069 126.546 336.581 113.549C324.858 101.358 309.963 97.1956 293.326 98.9371C289.588 99.1778 286.049 100.013 282.722 101.585C283.514 103.255 284.336 104.643 285.143 106.172C286.228 108.117 287.8 108.839 289.858 108.338C297.036 106.823 304.455 106.908 311.648 108.678C316.915 109.91 321.743 112.388 326.018 115.772C330.294 119.156 333.749 123.46 336.128 128.33C338.507 133.201 339.838 138.51 340.007 143.947C340.177 149.398 339.073 154.68 337.02 159.692C328.808 179.485 305.857 190.571 285.143 185.092C269.54 180.972 259.53 171.004 256.146 154.878C256.075 154.297 255.862 153.702 255.593 152.527L247.07 153.306L246.971 153.009L246.957 152.995ZM129.341 96.7141C128.817 96.3601 128.123 96.1337 127.585 95.9213C126.622 95.6523 125.66 95.3975 124.527 95.2559C106.191 93.5002 90.5036 99.0787 78.1714 113.082C62.4836 131.077 62.8515 156.237 79.0632 173.709C90.7583 186.182 105.469 190.614 122.12 188.717C146.77 185.701 168.447 164.322 166.04 137.194C164.596 120.458 155.676 108.621 141.121 100.636L139.86 100.48C139.28 101.698 138.657 103.185 137.893 104.799C143.414 107.347 148.228 111.099 151.895 115.984C161.127 127.566 163.335 140.549 157.87 154.425C146.501 183.379 105.441 190.883 84.5144 167.974C75.736 158.446 72.3238 147.02 74.929 134.362C78.7235 115.715 95.4732 101.712 114.587 100.707C118.608 100.509 122.7 100.877 127.132 100.863L129.1 96.5442L129.369 96.7141H129.341ZM220.395 145.207C224.898 144.641 228.692 143.976 232.43 143.735C234.865 143.622 235.587 142.418 236.012 140.195C238.886 122.001 248.5 108.098 263.621 98.0168C264.556 97.4221 265.504 96.6858 266.609 95.8221C262.319 88.0066 258.595 80.2477 253.455 72.3189C241.562 96.3602 230.986 120.132 220.126 145.023L220.395 145.193V145.207ZM280.116 33.1704C273.447 31.7546 246.362 36.0304 242.553 38.9754C243.346 39.4993 244.267 40.0515 245.215 40.448C250.935 42.6001 256.627 45.0353 262.531 46.7768C267.232 47.9378 272.117 48.844 276.888 49.4528C278.29 49.6369 279.833 49.8209 280.102 47.7254C280.725 42.8124 280.782 37.8286 279.975 33.0147L280.102 33.1704H280.116ZM272.315 105.974C259.133 112.005 246.985 130.171 247.834 141.554C249.562 141.484 251.289 141.285 253.158 141.229C254.135 141.356 255.041 141.045 255.834 140.422C256.627 139.799 257.009 139.006 257.278 138.029C260.039 128.67 265.915 120.571 273.872 115.149C274.807 114.554 275.614 113.804 276.562 113.067L272.471 105.988H272.329L272.315 105.974ZM281.985 123.177C275.529 126.787 270.644 132.734 268.308 139.855L290.863 137.576L281.985 123.177Z" fill="#102185"/>
<path d="M369.485 52.0578C372.062 51.9587 374.682 51.5764 377.315 51.0526C384.692 49.127 391.729 46.5926 397.774 41.6512C398.27 41.1415 399.034 40.6743 399.785 40.4761C400.535 40.1504 401.257 40.0938 402.121 40.0513C402.829 40.1363 403.664 40.2496 404.33 40.6177C404.995 40.9858 405.661 41.3539 406.156 41.991C406.652 42.6282 406.977 43.3786 407.317 44.129C407.515 44.8652 407.544 45.7289 407.43 46.5642C407.317 47.3996 406.949 48.0792 406.567 48.8863C406.199 49.5517 405.547 50.1889 404.924 50.5287C401.484 52.9498 397.788 55.0453 393.979 56.985C387.113 60.5388 379.566 62.5776 371.821 62.8891C367.517 63.059 363.326 62.3794 359.404 60.6096C358.597 60.2273 357.634 59.9583 356.629 59.9725C355.624 59.9866 354.732 60.2981 353.939 60.9211C345.855 65.0412 337.303 68.3685 328.439 70.6764C325.947 71.2144 323.342 71.4551 320.779 71.4126C319.378 71.2286 317.99 70.917 316.801 70.1949C315.725 69.6286 314.989 68.68 314.564 67.6322C314.125 66.5845 314.139 65.2961 314.422 64.1917C314.564 63.0732 315.257 62.1529 316.206 61.4167C317.141 60.822 318.188 60.3831 319.321 60.5247C329.742 60.553 338.421 55.0877 348.134 51.6189C347.341 49.9481 346.647 48.7164 346.081 47.5129C343.292 41.3115 341.692 34.8268 343.83 28.1015C344.764 25.2273 346.364 22.7212 348.63 20.5691C350.881 18.5727 353.5 17.0436 356.445 16.2791C359.39 15.5145 362.377 15.5994 365.294 16.2649C368.197 17.0578 370.859 18.5444 373.039 20.5266C377.754 24.9724 378.745 30.6641 377.527 36.9364C376.536 41.3822 374.455 45.3891 371.184 48.688C370.519 49.4526 369.825 50.3729 369.004 51.2649L369.329 52.0153H369.471L369.485 52.0578ZM357.903 45.4599C361.995 42.4158 365.804 39.4708 366.724 34.4445C367.375 30.3951 365.592 27.5918 361.953 26.9971C360.268 26.7848 358.654 27.1528 357.238 28.1156C355.836 29.0784 354.817 30.381 354.321 32.0234C353.273 36.8798 354.732 41.2123 357.875 45.6015V45.4599H357.903Z" fill="#102185"/>
</svg>

<svg xmlns="http://www.w3.org/2000/svg" width="408" height="206" fill="none" viewBox="0 0 408 206"><path fill="#102185" d="M26.549 111.68c-.156-4.446-.496-8.481-.538-12.63-.227-8.31 1.373-16.523 4.743-23.942 4.729-10.25 13.196-14.031 23.687-10.123a53 53 0 0 1 6.839 3.44c1.218.58 2.393 1.445 3.865 2.195 1.02-1.303 1.883-2.478 2.874-3.483a51.7 51.7 0 0 1 5.593-5.862c8.481-7.206 17.43-6.923 26.208.467 3.851 3.342 6.598 7.688 8.127 12.446 1.034 3.129 2.067 6.258 2.973 9.231l23.999 2.04 11.879-22.754c-.906-.68-1.684-1.359-2.449-2.024-4.941-4.913-10.379-9.303-14.697-14.711-7.745-9.826-7.235-21.748 2.563-30.356 5.791-5.126 12.19-9.444 18.335-14.088a10.3 10.3 0 0 1 3.158-1.317 5.1 5.1 0 0 1 3.27.128c1.091.424 1.855 1.09 2.45 2.024.594.935.878 2.11.878 3.257a6.7 6.7 0 0 1-1.246 3.129c-.822.892-1.643 1.642-2.563 2.237-4.573 3.412-9.005 6.853-13.691 10.11-3.908 2.647-3.271 6.724-3.172 10.448-.085.708 1.317 2.025 2.28 2.294 2.477.736 4.983 1.203 7.546 1.246 12.106-.892 24.041-2.804 35.708-5.89l.284.042c3.851-1.076 6.852 0 7.787 2.705 1.175 3.143-.68 6.484-4.673 7.546-6.498 1.742-12.941 3.073-19.524 4.234-7.136 1.09-14.329 1.614-21.437 2.42-.566-.07-1.161.142-2.633.524 2.577 2.18 4.644 3.866 6.711 5.565 1.671 1.5 3.37 2.704 5.21 3.936 1.331.736 2.705 1.203 4.262 1.26 10.492-.524 21.012-1.33 31.503-2.01 13.083-.765 26.194-1.685 39.276-2.45a72 72 0 0 0 10.86-1.19c-1.217-.58-2.421-1.16-3.61-1.882-1.756-.793-3.469-1.87-5.069-2.79-7.193-5.196-6.74-13.266 1.047-17.273 3.512-1.84 7.264-3.214 11.2-3.865 10.775-1.629 21.635-2.974 32.494-4.163 6.796-.708 10.676 2.492 12.106 9.246 1.727 7.787.863 15.659-.666 23.319-.863 4.601-4.728 6.966-9.967 6.584-4.956-.34-9.968-1.26-14.895-1.884s-1.813-.368-2.662-.34c-1.827-.226-2.676.808-2.039 2.592.312.892.651 1.656 1.119 2.42 4.516 8.284 9.033 16.552 13.436 24.68 1.614 3.057 1.756 3.072 5.027 2.066 17.641-5.182 34.632-4.176 50.73 5.14 18.095 10.421 28.516 26.165 28.813 47.459.297 24.721-11.823 42.604-33.089 53.902-21.578 11.54-43.524 11.186-64.592-1.614-6.626-3.978-12.389-9.274-16.849-15.687a53.2 53.2 0 0 1-8.736-21.224c-.141-1.161-.58-2.209-.849-3.384l-3.186.311c-6.499.609-13.125 1.048-19.638 1.799-1.317.254-2.86.07-4.078-.51-1.217-.581-2.364-1.586-2.93-2.804-2.818-4.785-5.961-9.316-8.779-14.102-8.806-14.965-19.17-28.968-29.067-43.212-4.22-6.102-8.269-12.46-12.332-18.689-.454-.92-1.19-1.869-1.94-2.676-3.313 4.715-6.088 9.784-8.325 15.079l3.596 2.025c9.981 5.691 18.052 14.13 23.007 24.607a55.84 55.84 0 0 1 4.772 33.287c-1.274 7.83-4.078 15.32-8.354 22.059a56.35 56.35 0 0 1-16.551 16.891 64.4 64.4 0 0 1-22.527 9.996c-8.084 1.841-16.367 1.926-24.48.609-9.656-1.515-18.86-5.522-26.66-11.511-.78-.665-1.7-1.217-2.804-1.5-.977-.128-2.11-.269-3.143.028-4.078.623-8.156.113-12.318.297-8.028.269-16.198.524-24.198.651-5.422.029-10.83-.085-16.126-.042q-1.72 0-3.313-.85c-1.076-.566-1.969-1.387-2.563-2.322-.736-.948-1.331-1.883-1.77-2.93C6.896 169.206 1.743 156.86.313 143.409c-.779-7.376-.298-14.597 3.68-21.224 4.532-7.56 11.13-11.298 20.007-10.307l2.804.354-.227-.453zm73.158-25.43c.113-.849-.085-1.585-.255-2.463-.58-2.208-1.147-4.431-2.166-6.555-1.36-2.747-3.045-5.239-5.183-7.504-3.823-3.625-7.546-3.526-11.27 0-2.775 2.79-5.31 5.89-7.447 9.189-4.036 5.918-6.966 6.541-12.545 2.124-.637-.652-1.416-1.175-2.223-1.572-2.648-1.614-5.31-3.1-8.155-4.318-4.489-1.714-6.598-.836-8.864 3.44-.566 1.076-1.147 2.28-1.585 3.512-3.087 8.594-3.342 17.415-2.322 26.25.34 2.902.977 5.833 1.019 8.835.212 6.159-4.021 9.188-9.911 7.305-1.515-.481-2.846-1.217-4.347-1.699-5.196-1.798-8.976-.141-11.454 4.828s-2.393 9.826-1.897 15.037c1.316 11.015 5.62 20.983 9.472 31.163.212.595.566 1.218 1.09 1.571.524.354 1.218.581 1.784.51 3.568.029 7.108.184 10.831.085 9.444-.226 19.044-.439 28.488-.68.877-.169 1.614-.368 2.491-.538-22.13-33.768-4.29-76.612 34.194-88.576l.283.043zm64.068-17.995-.567 1.076c5.295 7.802 10.463 15.447 15.745 23.263 5.309 7.66 10.873 15.504 16.155 23.447 5.281 7.943 10.024 15.546 15.263 23.772 1.557-3.228 2.718-5.649 3.893-8.212 9.869-21.592 19.738-43.17 29.606-64.761.411-.95.694-2.053 1.133-3.285-27.567.212-54.355 3.242-81.384 4.828zm-30.527 47.219c-.382.807-.934 1.742-1.345 2.69-2.038 4.885-4.219 9.6-6.258 14.485-.439 1.231-1.147 2.279-1.854 3.327a5.03 5.03 0 0 1-2.974 2.053c-1.175.283-2.463.255-3.511-.439-1.09-.425-2.11-1.402-2.549-2.464-.58-1.076-.694-2.378-.396-3.624.311-1.388.778-2.761 1.501-3.95 1.826-4.333 3.681-8.807 5.522-13.14.24-.821.495-1.656.594-2.492-12.559-2.307-26.901 5.013-33.089 16.793-3.157 5.734-4.148 12.459-2.803 18.774 1.458 6.47 5.04 12.049 10.392 16.013 6.386 4.8 14.357 7.235 22.4 6.839 15.064-.666 28.048-11.865 30.582-26.236 1.911-11.752-5.522-25.103-16.197-28.742v.142zm133.757 35.779c-.085.708.1 1.444.156 2.166.779 3.951 2.464 7.589 4.913 10.761s5.565 5.706 9.203 7.306c7.264 3.483 15.589 4.261 23.405 2.251 7.829-2.152 14.569-6.867 19.128-13.564 4.602-6.98 6.131-14.64 3.596-22.809-4.261-13.663-17.401-19.185-26.533-19.2-2.705-.056-5.494-.552-8.41 1.076 1.642 2.776 3.313 5.409 4.828 8.028 2.095 3.696 4.361 7.264 6.3 11.072 1.586 3.2.977 5.834-2.123 7.731-1.869 1.189-3.809 1.94-5.99 2.237-6.371.765-12.856 1.232-19.199 1.713-3.185.312-6.357.623-9.557 1.076l.269.17zm-20.048 1.742c.311 2.038.269 3.454.679 4.799 1.813 8.226 6.018 15.603 12.12 21.521 9.656 9.359 21.252 13.678 34.448 14.216 22.711 1.019 44.458-12.927 52.019-34.377 6.003-16.934 2.846-32.608-9.642-45.605-11.723-12.191-26.618-16.353-43.255-14.612-3.738.24-7.277 1.076-10.604 2.648.792 1.67 1.614 3.058 2.421 4.587q1.628 2.918 4.715 2.166c7.178-1.515 14.597-1.43 21.79.34 5.267 1.232 10.095 3.71 14.37 7.094a36.4 36.4 0 0 1 10.11 12.558 38.3 38.3 0 0 1 3.879 15.617c.17 5.451-.934 10.733-2.987 15.745-8.212 19.793-31.163 30.879-51.877 25.4-15.603-4.12-25.613-14.088-28.997-30.214-.071-.581-.284-1.176-.553-2.351l-8.523.779-.099-.297zm-117.616-56.28c-.524-.355-1.218-.581-1.756-.794-.963-.269-1.925-.524-3.058-.665-18.336-1.756-34.023 3.823-46.356 17.826-15.687 17.995-15.32 43.155.892 60.627 11.695 12.473 26.406 16.905 43.057 15.008 24.65-3.016 46.327-24.395 43.92-51.523-1.444-16.736-10.364-28.573-24.919-36.558l-1.261-.156c-.58 1.218-1.203 2.705-1.967 4.319 5.521 2.548 10.335 6.3 14.002 11.185 9.232 11.582 11.44 24.565 5.975 38.441-11.369 28.954-52.429 36.458-73.356 13.549-8.778-9.528-12.19-20.954-9.585-33.612 3.794-18.647 20.544-32.65 39.658-33.655 4.021-.198 8.113.17 12.545.156l1.968-4.319.269.17zm91.054 48.492c4.503-.566 8.297-1.231 12.035-1.472 2.435-.113 3.157-1.317 3.582-3.54 2.874-18.194 12.488-32.097 27.609-42.178.935-.595 1.883-1.331 2.988-2.195-4.29-7.815-8.014-15.574-13.154-23.503-11.893 24.041-22.469 47.813-33.329 72.704l.269.17zM280.116 33.17c-6.669-1.415-33.754 2.86-37.563 5.805.793.524 1.714 1.076 2.662 1.473 5.72 2.152 11.412 4.587 17.316 6.329a128 128 0 0 0 14.357 2.676c1.402.184 2.945.368 3.214-1.728.623-4.913.68-9.896-.127-14.71l.127.155zm-7.801 72.804c-13.182 6.031-25.33 24.197-24.481 35.58 1.728-.07 3.455-.269 5.324-.325.977.127 1.883-.184 2.676-.807s1.175-1.416 1.444-2.393c2.761-9.359 8.637-17.458 16.594-22.88.935-.595 1.742-1.345 2.69-2.082l-4.091-7.079h-.142zm9.67 17.203c-6.456 3.61-11.341 9.557-13.677 16.678l22.555-2.279z"/><path fill="#102185" d="M369.485 52.058c2.577-.1 5.197-.482 7.83-1.005 7.377-1.926 14.414-4.46 20.459-9.402a4.6 4.6 0 0 1 2.011-1.175c.75-.326 1.472-.382 2.336-.425.708.085 1.543.199 2.209.567.665.368 1.331.736 1.826 1.373s.821 1.388 1.161 2.138c.198.736.227 1.6.113 2.435-.113.836-.481 1.515-.863 2.322-.368.666-1.02 1.303-1.643 1.643-3.44 2.42-7.136 4.516-10.945 6.456-6.866 3.554-14.413 5.593-22.158 5.904-4.304.17-8.495-.51-12.417-2.28-.807-.382-1.77-.65-2.775-.637a4.33 4.33 0 0 0-2.69.95c-8.084 4.12-16.636 7.447-25.5 9.754a34 34 0 0 1-7.66.737c-1.401-.184-2.789-.496-3.978-1.218-1.076-.566-1.812-1.515-2.237-2.563-.439-1.047-.425-2.336-.142-3.44.142-1.119.835-2.04 1.784-2.775.935-.595 1.982-1.034 3.115-.892 10.421.028 19.1-5.437 28.813-8.906-.793-1.67-1.487-2.903-2.053-4.106-2.789-6.201-4.389-12.686-2.251-19.411.934-2.875 2.534-5.38 4.8-7.533 2.251-1.996 4.87-3.525 7.815-4.29 2.945-.764 5.932-.68 8.849-.014a19 19 0 0 1 7.745 4.262c4.715 4.445 5.706 10.137 4.488 16.41-.991 4.445-3.072 8.452-6.343 11.751-.665.765-1.359 1.685-2.18 2.577l.325.75h.142zm-11.582-6.598c4.092-3.044 7.901-5.99 8.821-11.016.651-4.049-1.132-6.852-4.771-7.447-1.685-.212-3.299.156-4.715 1.119-1.402.962-2.421 2.265-2.917 3.907-1.048 4.857.411 9.19 3.554 13.578v-.141z"/></svg>
